X:1
T:[ID 1-93b]
T:[ID 1-93b]
T:Bezeichnung standardisiert: Menuett Men
T:Urheber unbekannt Datum in der hier transkribierten schriftlichen Quelle: vermutlich vor 1767
C:Urheber unbekannt
C:Datum in der hier transkribierten schriftlichen Quelle: vermutlich vor 1767
L:1/8
M:3/4
K:G
V:1 treble 
V:1
"^O)" g4 (3fga | c2 Ac B2 |"^O)" g4 (3fga | c2 Ac B2 |"^O)" D4 FD | GBAcBd |"^O)" D4 FD | GBAcBd | %8
 Bd g4 | Bd g4 | AcBAGF | G6 :: d4 ce | G2 EG F2 | d4 ce | G2 EG F2 |"^O)" A4 cA | dfegfa | %18
"^O)" A4 cA | dfegfa | bagfed | ^cBAGFE | DFAd^ce | d6 :| %24

